; generated by PrusaSlicer 2.7.4 on 2024-06-06 at 14:43:30 UTC

; 

; external perimeters extrusion width = 0.42mm
; perimeters extrusion width = 0.44mm
; infill extrusion width = 0.44mm
; solid infill extrusion width = 0.44mm
; top infill extrusion width = 0.40mm
; first layer extrusion width = 0.42mm

M201 X500 Y500 Z100 E5000 ; sets maximum accelerations, mm/sec^2
M203 X500 Y500 Z10 E60 ; sets maximum feedrates, mm / sec
M204 S500 T1000 ; sets acceleration (S) and retract acceleration (R), mm/sec^2
M205 X8.00 Y8.00 Z0.40 E5.00 ; sets the jerk limits, mm/sec
M205 S0 T0 ; sets the minimum extruding and travel feed rate, mm/sec

; printing object 6 eraser holder-Fillet id:0 copy 0
; stop printing object 6 eraser holder-Fillet id:0 copy 0

;TYPE:Custom
G90 ; use absolute coordinates
M83 ; extruder relative mode
M104 S150 ; set temporary nozzle temp to prevent oozing during homing
M140 S60 ; set final bed temp
G4 S30 ; allow partial nozzle warmup
G28 ; home all axis and restore leveling
G1 Z50 F240
G1 X2.0 Y10 F3000
M104 S210 ; set final nozzle temp
M190 S60 ; wait for bed temp to stabilize
M109 S210 ; wait for nozzle temp to stabilize
G1 Z0.28 F240
G92 E0
G1 X2.0 Y140 E10 F1500 ; prime the nozzle
G1 X2.3 Y140 F5000
G92 E0
G1 X2.3 Y10 E10 F1200 ; prime the nozzle
G92 E0
G21 ; set units to millimeters
G90 ; use absolute coordinates
M83 ; use relative distances for extrusion
; Filament gcode
M107
;LAYER_CHANGE
;Z:0.2
;HEIGHT:0.2
G1 E-.8 F1800
G1 Z.2 F9000
G1 X104.853 Y98.826
G1 Z.2
G1 E.8 F1800
M204 S500
;TYPE:Skirt/Brim
;WIDTH:0.42
G1 F1200
G1 X105.518 Y98.228 E.02804
G1 X107.012 Y97.254 E.05592
G1 X108.061 Y96.798 E.03586
G1 X108.918 Y96.54 E.02806
G1 X110.693 Y96.293 E.05619
G1 X189.111 Y96.289 E2.45874
G1 X190.795 Y96.474 E.05312
G1 X192.333 Y96.95 E.05048
G1 X193.654 Y97.635 E.04666
G1 X194.927 Y98.615 E.05037
G1 X195.957 Y99.755 E.04817
G1 X196.875 Y101.272 E.0556
G1 X197.426 Y102.784 E.05046
G1 X197.693 Y104.416 E.05185
G1 X197.713 Y195.098 E2.84327
G1 X197.584 Y196.494 E.04396
G1 X197.256 Y197.782 E.04167
G1 X196.604 Y199.253 E.05045
G1 X195.85 Y200.383 E.04259
G1 X195.142 Y201.18 E.03343
G1 X194.479 Y201.774 E.02791
G1 X193.547 Y202.432 E.03577
G1 X192.76 Y202.86 E.02809
G1 X191.936 Y203.203 E.02798
G1 X190.919 Y203.499 E.03321
G1 X189.138 Y203.711 E.05624
G1 X110.769 Y203.71 E2.4572
G1 X109.248 Y203.535 E.048
G1 X107.95 Y203.161 E.04235
G1 X106.749 Y202.605 E.0415
G1 X105.617 Y201.851 E.04265
G1 X104.823 Y201.145 E.03331
G1 X104.228 Y200.482 E.02793
G1 X103.568 Y199.547 E.03588
G1 X103.141 Y198.76 E.02807
G1 X102.54 Y197.083 E.05586
G1 X102.37 Y196.196 E.02832
G1 X102.289 Y195.138 E.03327
G1 X102.29 Y104.773 E2.83333
G1 X102.465 Y103.25 E.04807
G1 X102.84 Y101.947 E.04251
G1 X103.396 Y100.746 E.0415
G1 X104.147 Y99.62 E.04244
G1 X104.813 Y98.871 E.03143
;WIPE_START
G1 F7200
G1 X104.853 Y98.826 E-.0143
G1 X105.518 Y98.228 E-.2124
G1 X107.012 Y97.254 E-.42357
G1 X107.59 Y97.003 E-.14973
;WIPE_END
G1 X107.369 Y101.515 F9000
G1 E.8 F1800
G1 F1200
G1 X108.806 Y100.442 E.05623
G1 X109.802 Y100.099 E.03303
G1 X110.803 Y99.951 E.03173
G1 X189.277 Y99.952 E2.4605
G1 X191.062 Y100.393 E.05765
G1 X192.531 Y101.385 E.05558
G1 X193.534 Y102.775 E.05374
G1 X194.049 Y104.739 E.06366
G1 X194.049 Y195.221 E2.837
G1 X193.723 Y196.78 E.04994
G1 X192.944 Y198.161 E.04971
G1 X192.63 Y198.486 E.01417
G1 X191.193 Y199.558 E.05621
G1 X190.197 Y199.901 E.03303
G1 X189.197 Y200.049 E.0317
G1 X110.779 Y200.049 E2.45874
G1 X109.22 Y199.723 E.04994
G1 X107.84 Y198.944 E.04969
G1 X107.514 Y198.63 E.01419
G1 X106.442 Y197.193 E.05621
G1 X106.107 Y196.231 E.03194
G1 X105.951 Y195.197 E.03279
G1 X105.951 Y104.78 E2.83496
G1 X106.276 Y103.221 E.04993
G1 X107.055 Y101.841 E.04969
G1 X107.327 Y101.558 E.01231
G1 X107.327 Y101.558 F9000
G1 X107.599 Y101.816
G1 F1200
G1 X107.609 Y101.806 E.00044
G1 X108.959 Y100.788 E.05301
G1 X109.876 Y100.469 E.03044
G1 X110.817 Y100.328 E.02983
G1 X189.255 Y100.329 E2.45937
G1 X190.88 Y100.725 E.05244
G1 X192.265 Y101.654 E.05229
G1 X192.509 Y101.928 E.0115
G1 X193.204 Y102.959 E.03899
G1 X193.672 Y104.763 E.05844
G1 X193.672 Y195.202 E2.83565
G1 X193.38 Y196.622 E.04545
G1 X192.654 Y197.918 E.04658
G1 X192.39 Y198.195 E.012
G1 X191.04 Y199.212 E.053
G1 X190.124 Y199.531 E.03041
G1 X189.183 Y199.672 E.02983
G1 X110.798 Y199.672 E2.45771
G1 X109.378 Y199.38 E.04545
G1 X108.082 Y198.654 E.04658
G1 X107.805 Y198.39 E.012
G1 X106.788 Y197.041 E.05297
G1 X106.469 Y196.124 E.03044
G1 X106.328 Y195.183 E.02983
G1 X106.328 Y104.798 E2.83396
G1 X106.62 Y103.379 E.04542
G1 X107.345 Y102.083 E.04656
G1 X107.558 Y101.86 E.00967
G1 X107.558 Y101.86 F9000
G1 X107.815 Y102.18
G1 F1200
G1 X109.113 Y101.134 E.05227
G1 X109.951 Y100.839 E.02786
G1 X110.832 Y100.705 E.02794
G1 X189.233 Y100.706 E2.45821
G1 X190.7 Y101.057 E.0473
G1 X192.001 Y101.924 E.04902
G1 X192.873 Y103.142 E.04697
G1 X193.295 Y104.787 E.05325
G1 X193.295 Y195.182 E2.83427
G1 X193.017 Y196.516 E.04273
G1 X192.363 Y197.677 E.04178
G1 X190.887 Y198.867 E.05945
G1 X190.049 Y199.161 E.02785
G1 X189.168 Y199.295 E.02794
G1 X110.818 Y199.295 E2.45661
G1 X109.484 Y199.017 E.04273
G1 X108.323 Y198.364 E.04177
G1 X107.134 Y196.887 E.05945
G1 X106.839 Y196.049 E.02786
G1 X106.705 Y195.168 E.02794
G1 X106.705 Y104.818 E2.83286
G1 X106.983 Y103.485 E.04269
G1 X107.636 Y102.324 E.04177
G1 X107.768 Y102.217 E.00533
G1 X107.768 Y102.217 F9000
G1 X108.08 Y102.407
G1 F1200
G1 X108.094 Y102.384 E.00084
G1 X109.268 Y101.479 E.04648
G1 X110.026 Y101.209 E.02523
G1 X110.846 Y101.082 E.02602
G1 X189.21 Y101.083 E2.45705
G1 X190.578 Y101.416 E.04415
G1 X191.899 Y102.372 E.05113
G1 X192.542 Y103.326 E.03607
G1 X192.918 Y104.81 E.048
G1 X192.918 Y195.163 E2.83295
G1 X192.673 Y196.358 E.03825
G1 X191.905 Y197.617 E.04624
G1 X190.731 Y198.522 E.04648
G1 X189.973 Y198.791 E.02522
G1 X189.154 Y198.918 E.02599
G1 X110.837 Y198.918 E2.45557
G1 X109.642 Y198.673 E.03825
G1 X108.383 Y197.905 E.04624
G1 X107.479 Y196.732 E.04643
G1 X107.209 Y195.973 E.02526
G1 X107.082 Y195.154 E.02599
G1 X107.082 Y104.837 E2.83183
G1 X107.327 Y103.642 E.03825
G1 X108.049 Y102.459 E.04345
G1 X108.049 Y102.459 F9000
G1 X108.285 Y102.749
G1 F1200
G1 X109.425 Y101.823 E.04605
G1 X110.103 Y101.579 E.02259
G1 X110.861 Y101.459 E.02406
G1 X189.189 Y101.46 E2.45592
G1 X190.397 Y101.748 E.03894
G1 X191.477 Y102.467 E.04068
G1 X192.21 Y103.509 E.03995
G1 X192.541 Y104.833 E.04279
G1 X192.541 Y195.144 E2.83164
G1 X192.31 Y196.252 E.03549
G1 X191.778 Y197.2 E.03408
G1 X190.575 Y198.177 E.04859
G1 X189.897 Y198.422 E.0226
G1 X189.139 Y198.541 E.02406
G1 X110.856 Y198.541 E2.45451
G1 X109.748 Y198.31 E.03549
G1 X108.8 Y197.778 E.03408
G1 X107.823 Y196.575 E.04859
G1 X107.578 Y195.897 E.0226
G1 X107.459 Y195.139 E.02406
G1 X107.459 Y104.856 E2.83076
G1 X107.69 Y103.748 E.03549
G1 X108.222 Y102.8 E.03408
G1 X108.238 Y102.787 E.00065
G1 X108.238 Y102.787 F9000
G1 X108.573 Y102.982
G1 F1200
G1 X108.589 Y102.954 E.00101
G1 X109.583 Y102.166 E.03977
G1 X110.181 Y101.948 E.01996
G1 X110.876 Y101.836 E.02207
G1 X189.166 Y101.838 E2.45473
G1 X190.275 Y102.106 E.03577
G1 X191.292 Y102.82 E.03896
G1 X191.879 Y103.691 E.03293
G1 X192.164 Y104.855 E.03757
G1 X192.164 Y195.125 E2.83035
G1 X191.966 Y196.095 E.03104
G1 X191.41 Y197.047 E.03457
G1 X190.416 Y197.834 E.03975
G1 X189.818 Y198.052 E.01996
G1 X189.124 Y198.164 E.02204
G1 X110.875 Y198.164 E2.45344
G1 X109.905 Y197.966 E.03104
G1 X108.953 Y197.41 E.03457
G1 X108.166 Y196.416 E.03975
G1 X107.948 Y195.818 E.01996
G1 X107.836 Y195.124 E.02204
G1 X107.836 Y104.875 E2.82969
G1 X108.034 Y103.905 E.03104
G1 X108.542 Y103.034 E.03162
G1 X108.542 Y103.034 F9000
G1 X108.82 Y103.26
G1 F1200
G1 X109.744 Y102.509 E.03733
G1 X110.261 Y102.317 E.01729
G1 X110.892 Y102.213 E.02005
G1 X189.144 Y102.215 E2.45354
G1 X190.094 Y102.439 E.0306
G1 X190.966 Y103.022 E.03289
G1 X191.547 Y103.874 E.03233
G1 X191.787 Y104.876 E.03231
G1 X191.787 Y195.107 E2.82913
G1 X191.622 Y195.939 E.02659
G1 X191.179 Y196.741 E.02873
G1 X190.255 Y197.492 E.03733
G1 X189.739 Y197.683 E.01725
G1 X189.108 Y197.787 E.02005
G1 X110.893 Y197.787 E2.45238
G1 X110.061 Y197.622 E.02659
G1 X109.259 Y197.179 E.02873
G1 X108.508 Y196.255 E.03733
G1 X108.317 Y195.739 E.01725
G1 X108.213 Y195.108 E.02005
G1 X108.213 Y104.893 E2.82863
G1 X108.378 Y104.061 E.02659
G1 X108.791 Y103.312 E.02682
G1 X108.791 Y103.312 F9000
G1 X109.119 Y103.497
G1 F1200
G1 X109.122 Y103.492 E.00018
G1 X109.907 Y102.85 E.0318
G1 X110.343 Y102.685 E.01462
G1 X110.908 Y102.591 E.01796
G1 X189.121 Y102.592 E2.45231
G1 X189.971 Y102.797 E.02742
G1 X190.707 Y103.302 E.02799
G1 X191.214 Y104.055 E.02846
G1 X191.41 Y104.897 E.02711
G1 X191.41 Y195.088 E2.82788
G1 X191.258 Y195.834 E.02387
G1 X190.877 Y196.508 E.02428
G1 X190.092 Y197.15 E.0318
G1 X189.092 Y197.41 E.0324
G1 X110.912 Y197.41 E2.45128
G1 X110.166 Y197.258 E.02387
G1 X109.492 Y196.877 E.02428
G1 X108.85 Y196.092 E.0318
G1 X108.591 Y195.092 E.03239
G1 X108.591 Y104.912 E2.82753
G1 X108.741 Y104.166 E.02386
G1 X109.09 Y103.55 E.0222
G1 X109.09 Y103.55 F9000
G1 X109.415 Y103.738
G1 F1200
G1 X109.43 Y103.712 E.00094
G1 X110.071 Y103.191 E.0259
G1 X110.925 Y102.968 E.02767
G1 X189.1 Y102.969 E2.45112
G1 X189.792 Y103.13 E.02228
G1 X190.42 Y103.548 E.02365
G1 X190.856 Y104.178 E.02402
G1 X191.032 Y104.92 E.02391
G1 X191.032 Y195.068 E2.82653
G1 X190.896 Y195.726 E.02107
G1 X190.569 Y196.289 E.02041
G1 X189.928 Y196.81 E.0259
G1 X189.075 Y197.032 E.02764
G1 X110.932 Y197.032 E2.45012
G1 X110.274 Y196.896 E.02107
G1 X109.711 Y196.57 E.0204
G1 X109.191 Y195.929 E.02588
G1 X108.968 Y195.075 E.02767
G1 X108.968 Y104.932 E2.82637
G1 X109.104 Y104.274 E.02107
G1 X109.385 Y103.79 E.01755
G1 X109.385 Y103.79 F9000
G1 X109.711 Y103.979
G1 F1200
G1 X109.739 Y103.931 E.00174
G1 X110.237 Y103.53 E.02005
G1 X110.942 Y103.345 E.02285
G1 X189.078 Y103.346 E2.4499
G1 X189.668 Y103.488 E.01903
G1 X190.174 Y103.836 E.01926
G1 X190.523 Y104.357 E.01966
G1 X190.655 Y104.94 E.01874
G1 X190.655 Y195.051 E2.82537
G1 X190.554 Y195.565 E.01642
G1 X190.261 Y196.069 E.01828
G1 X189.763 Y196.47 E.02005
G1 X189.058 Y196.655 E.02285
G1 X110.949 Y196.655 E2.44905
G1 X110.435 Y196.554 E.01642
G1 X109.931 Y196.261 E.01828
G1 X109.53 Y195.763 E.02005
G1 X109.345 Y195.058 E.02285
G1 X109.345 Y104.949 E2.8253
G1 X109.446 Y104.436 E.01639
G1 X109.681 Y104.031 E.01468
G1 X109.681 Y104.031 F9000
G1 X110.002 Y104.209
G1 F1200
G1 X110.008 Y104.197 E.00042
G1 X110.408 Y103.867 E.01626
G1 X110.96 Y103.722 E.01789
G1 X189.054 Y103.723 E2.44858
G1 X189.539 Y103.844 E.01567
G1 X189.923 Y104.119 E.01481
G1 X190.186 Y104.529 E.01527
G1 X190.278 Y104.959 E.01379
G1 X190.278 Y195.034 E2.82424
G1 X190.208 Y195.411 E.01202
G1 X189.991 Y195.803 E.01405
G1 X189.592 Y196.133 E.01623
G1 X189.04 Y196.278 E.01789
G1 X110.966 Y196.278 E2.44796
G1 X110.588 Y196.208 E.01205
G1 X110.197 Y195.991 E.01402
G1 X109.867 Y195.592 E.01623
G1 X109.722 Y195.04 E.01789
G1 X109.722 Y104.966 E2.82421
G1 X109.792 Y104.589 E.01202
G1 X109.973 Y104.261 E.01175
G1 X109.973 Y104.261 F9000
G1 X110.297 Y104.449
G1 F1200
G1 X110.315 Y104.418 E.00112
G1 X110.581 Y104.203 E.01072
G1 X110.979 Y104.099 E.0129
G1 X189.033 Y104.1 E2.44733
G1 X189.359 Y104.177 E.0105
G1 X189.634 Y104.364 E.01043
G1 X189.827 Y104.649 E.01079
G1 X189.901 Y104.981 E.01067
G1 X189.901 Y195.015 E2.82295
G1 X189.845 Y195.306 E.00929
G1 X189.684 Y195.582 E.01002
G1 X189.419 Y195.797 E.0107
G1 X189.021 Y195.901 E.0129
G1 X110.985 Y195.901 E2.44676
G1 X110.694 Y195.845 E.00929
G1 X110.418 Y195.685 E.01
G1 X110.203 Y195.419 E.01072
G1 X110.099 Y195.021 E.0129
G1 X110.099 Y104.985 E2.82302
G1 X110.155 Y104.694 E.00929
G1 X110.267 Y104.501 E.007
G1 X110.267 Y104.501 F9000
G1 X110.589 Y104.681
G1 F1200
G1 X110.766 Y104.532 E.00725
G1 X110.999 Y104.476 E.00751
G1 X189.015 Y104.477 E2.44614
G1 X189.355 Y104.619 E.01155
G1 X189.524 Y105.004 E.01318
G1 X189.524 Y195.001 E2.82179
G1 X189.411 Y195.32 E.01061
G1 X189.234 Y195.468 E.00723
G1 X189.001 Y195.524 E.00751
G1 X110.999 Y195.524 E2.4457
G1 X110.68 Y195.411 E.01061
G1 X110.532 Y195.234 E.00723
G1 X110.476 Y195.001 E.00751
G1 X110.476 Y104.999 E2.82195
G1 X110.569 Y104.737 E.00872
;WIPE_START
G1 F7200
G1 X110.589 Y104.681 E-.01412
G1 X110.766 Y104.532 E-.05495
G1 X110.999 Y104.476 E-.05691
G1 X113.837 Y104.476 E-.67402
;WIPE_END
; printing object 6 eraser holder-Fillet id:0 copy 0
G1 X111.629 Y105.629 F9000
G1 E.8 F1800
;TYPE:Perimeter
;WIDTH:0.419999
G1 F1200
G1 X188.371 Y105.63 E2.40619
G1 X188.371 Y194.371 E2.78241
G1 X111.629 Y194.371 E2.40619
G1 X111.629 Y105.689 E2.78056
G1 X111.629 Y105.689 F9000
G1 X111.252 Y105.252
G1 F1200
G1 X188.748 Y105.253 E2.42983
G1 X188.748 Y194.748 E2.80605
G1 X111.252 Y194.748 E2.42983
G1 X111.252 Y105.312 E2.8042
G1 X111.252 Y105.312 F9000
G1 X110.874 Y105.072
;TYPE:External perimeter
G1 F1200
G1 X110.912 Y104.936 E.00443
G1 X111.024 Y104.874 E.00401
G1 X188.921 Y104.876 E2.4424
G1 X189.078 Y104.923 E.00514
G1 X189.126 Y105.08 E.00515
G1 X189.126 Y194.928 E2.81712
G1 X189.088 Y195.064 E.00443
G1 X188.976 Y195.126 E.00401
G1 X111.072 Y195.126 E2.44262
G1 X110.936 Y195.088 E.00443
G1 X110.874 Y194.976 E.00401
G1 X110.874 Y105.132 E2.81699
;WIPE_START
G1 F7200
G1 X110.874 Y105.072 E-.01425
G1 X110.912 Y104.936 E-.03354
G1 X111.024 Y104.874 E-.0304
G1 X114.063 Y104.874 E-.72181
;WIPE_END
G1 X188.251 Y106.514 F9000
G1 E.8 F1800
;TYPE:Solid infill
;WIDTH:0.420677
G1 F1200
G1 X187.657 Y105.92 E.02639
G1 X187.122 Y105.92 E.0168
G1 X188.081 Y106.879 E.0426
G1 X188.081 Y107.413 E.01677
G1 X186.588 Y105.92 E.06632
G1 X186.054 Y105.92 E.01677
G1 X188.081 Y107.947 E.09004
G1 X188.081 Y108.481 E.01677
G1 X185.52 Y105.92 E.11376
G1 X184.986 Y105.92 E.01677
G1 X188.081 Y109.016 E.13751
G1 X188.081 Y109.55 E.01677
G1 X184.451 Y105.92 E.16125
G1 X183.917 Y105.92 E.01677
G1 X188.081 Y110.084 E.18497
G1 X188.081 Y110.618 E.01677
G1 X183.383 Y105.92 E.20869
G1 X182.849 Y105.92 E.01677
G1 X188.081 Y111.153 E.23243
G1 X188.081 Y111.687 E.01677
G1 X182.314 Y105.92 E.25618
G1 X181.78 Y105.92 E.01677
G1 X188.081 Y112.221 E.2799
G1 X188.081 Y112.755 E.01677
G1 X181.246 Y105.92 E.30362
G1 X180.712 Y105.92 E.01677
G1 X188.081 Y113.289 E.32734
G1 X188.081 Y113.824 E.0168
G1 X180.177 Y105.92 E.35111
G1 X179.643 Y105.92 E.01677
G1 X188.081 Y114.358 E.37483
G1 X188.081 Y114.892 E.01677
G1 X179.109 Y105.92 E.39855
G1 X178.575 Y105.92 E.01677
G1 X188.081 Y115.426 E.42227
G1 X188.081 Y115.961 E.0168
G1 X178.04 Y105.92 E.44603
G1 X177.506 Y105.92 E.01677
G1 X188.081 Y116.495 E.46976
G1 X188.081 Y117.029 E.01677
G1 X176.972 Y105.92 E.49348
G1 X176.438 Y105.92 E.01677
G1 X188.081 Y117.563 E.5172
G1 X188.081 Y118.098 E.0168
G1 X175.904 Y105.92 E.54094
G1 X175.369 Y105.92 E.0168
G1 X188.081 Y118.632 E.56468
G1 X188.081 Y119.166 E.01677
G1 X174.835 Y105.92 E.5884
G1 X174.301 Y105.92 E.01677
G1 X188.081 Y119.7 E.61213
G1 X188.081 Y120.234 E.01677
G1 X173.767 Y105.92 E.63585
G1 X173.232 Y105.92 E.0168
G1 X188.081 Y120.769 E.65961
G1 X188.081 Y121.303 E.01677
G1 X172.698 Y105.92 E.68333
G1 X172.164 Y105.92 E.01677
G1 X188.081 Y121.837 E.70705
G1 X188.081 Y122.371 E.01677
G1 X171.63 Y105.92 E.73078
G1 X171.095 Y105.92 E.0168
G1 X188.081 Y122.906 E.75454
G1 X188.081 Y123.44 E.01677
G1 X170.561 Y105.92 E.77826
G1 X170.027 Y105.92 E.01677
G1 X188.081 Y123.974 E.80198
G1 X188.081 Y124.508 E.01677
G1 X169.493 Y105.92 E.8257
G1 X168.958 Y105.92 E.0168
G1 X188.081 Y125.042 E.84945
G1 X188.081 Y125.577 E.0168
G1 X168.424 Y105.92 E.87319
G1 X167.89 Y105.92 E.01677
G1 X188.081 Y126.111 E.89691
G1 X188.081 Y126.645 E.01677
G1 X167.356 Y105.92 E.92063
G1 X166.821 Y105.92 E.0168
G1 X188.081 Y127.179 E.94438
G1 X188.081 Y127.714 E.0168
G1 X166.287 Y105.92 E.96812
G1 X165.753 Y105.92 E.01677
G1 X188.081 Y128.248 E.99184
G1 X188.081 Y128.782 E.01677
G1 X165.219 Y105.92 E1.01556
G1 X164.685 Y105.92 E.01677
G1 X188.081 Y129.316 E1.03928
G1 X188.081 Y129.851 E.0168
G1 X164.15 Y105.92 E1.06305
G1 X163.616 Y105.92 E.01677
G1 X188.081 Y130.385 E1.08677
